images/content/header/logo.svg

<svg width="143" height="23" viewBox="0 0 143 23" fill="none" xmlns="http://www.w3.org/2000/svg">
<path d="M7.80297 18.4C5.3695 18.4 3.48268 17.7952 2.14251 16.5856C0.819973 15.3759 0.11462 13.6722 0.0264507 11.4744C0.0088169 11.0144 0 10.2648 0 9.22556C0 8.16926 0.0088169 7.40259 0.0264507 6.92556C0.11462 4.74482 0.82879 3.04963 2.16896 1.84C3.52677 0.613334 5.40477 0 7.80297 0C9.37238 0 10.739 0.264074 11.9028 0.792223C13.0667 1.30333 13.966 2.01037 14.6008 2.91333C15.2356 3.79926 15.5707 4.80444 15.6059 5.92889V5.98C15.6059 6.1163 15.5442 6.23556 15.4208 6.33778C15.315 6.42296 15.1915 6.46556 15.0505 6.46556H12.5377C12.3261 6.46556 12.1673 6.42296 12.0615 6.33778C11.9557 6.25259 11.8676 6.09074 11.797 5.85222C11.5149 4.77889 11.0476 4.02926 10.3951 3.60333C9.74269 3.16037 8.86982 2.93889 7.77652 2.93889C5.23725 2.93889 3.91471 4.31037 3.80891 7.05333C3.79127 7.51333 3.78246 8.22037 3.78246 9.17445C3.78246 10.1285 3.79127 10.8526 3.80891 11.3467C3.91471 14.0896 5.23725 15.4611 7.77652 15.4611C8.86982 15.4611 9.74269 15.2396 10.3951 14.7967C11.0652 14.3537 11.5325 13.6041 11.797 12.5478C11.8499 12.3093 11.9293 12.1474 12.0351 12.0622C12.1585 11.977 12.3261 11.9344 12.5377 11.9344H15.0505C15.2092 11.9344 15.3414 11.9856 15.4472 12.0878C15.5707 12.19 15.6236 12.3178 15.6059 12.4711C15.5707 13.5956 15.2356 14.6093 14.6008 15.5122C13.966 16.3981 13.0667 17.1052 11.9028 17.6333C10.739 18.1444 9.37238 18.4 7.80297 18.4Z" fill="#122659"/>
<path d="M19.0867 18.1444C18.9104 18.1444 18.7605 18.0848 18.637 17.9656C18.5136 17.8463 18.4519 17.7015 18.4519 17.5311V0.613333C18.4519 0.425926 18.5136 0.281112 18.637 0.17889C18.7605 0.0596299 18.9104 0 19.0867 0H21.2821C21.4761 0 21.626 0.0596299 21.7318 0.17889C21.8552 0.281112 21.9169 0.425926 21.9169 0.613333V17.5311C21.9169 17.7015 21.8552 17.8463 21.7318 17.9656C21.626 18.0848 21.4761 18.1444 21.2821 18.1444H19.0867Z" fill="#122659"/>
<path d="M31.3505 18.4C29.3932 18.4 27.8326 17.8548 26.6688 16.7644C25.5226 15.657 24.9142 14.1067 24.8437 12.1133L24.8172 11.4744L24.8437 10.8356C24.9318 8.89333 25.549 7.36852 26.6952 6.26111C27.859 5.1537 29.4108 4.6 31.3505 4.6C33.4313 4.6 35.036 5.21333 36.1646 6.44C37.3108 7.66667 37.8839 9.30222 37.8839 11.3467V11.8833C37.8839 12.0537 37.8222 12.1985 37.6987 12.3178C37.5753 12.437 37.4166 12.4967 37.2226 12.4967H28.441V12.7011C28.4762 13.6381 28.7407 14.4304 29.2345 15.0778C29.7459 15.7081 30.4424 16.0233 31.3241 16.0233C32.3645 16.0233 33.2021 15.6315 33.8369 14.8478C33.9956 14.6604 34.1191 14.5411 34.2072 14.49C34.313 14.4389 34.4629 14.4133 34.6569 14.4133H36.9317C37.0904 14.4133 37.2226 14.4644 37.3284 14.5667C37.4519 14.6519 37.5136 14.7626 37.5136 14.8989C37.5136 15.3078 37.2579 15.7933 36.7465 16.3556C36.2528 16.9007 35.5386 17.3778 34.604 17.7867C33.6694 18.1956 32.5849 18.4 31.3505 18.4ZM34.2866 10.35V10.2733C34.2866 9.26815 34.0221 8.45889 33.4931 7.84556C32.9817 7.23222 32.2675 6.92556 31.3505 6.92556C30.4336 6.92556 29.7194 7.23222 29.208 7.84556C28.6967 8.45889 28.441 9.26815 28.441 10.2733V10.35H34.2866Z" fill="#122659"/>
<path d="M45.0677 18.1444C44.8032 18.1444 44.6004 18.0933 44.4594 17.9911C44.3183 17.8719 44.2037 17.71 44.1155 17.5056L39.1692 5.64778L39.1163 5.41778C39.1163 5.26444 39.1692 5.13667 39.275 5.03445C39.3985 4.91519 39.5395 4.85556 39.6982 4.85556H41.8408C42.1758 4.85556 42.405 5.01741 42.5285 5.34111L46.0464 14.3111L49.5644 5.34111C49.6173 5.22185 49.6966 5.11111 49.8024 5.00889C49.9259 4.90667 50.0758 4.85556 50.2521 4.85556H52.4211C52.5621 4.85556 52.6856 4.91519 52.7914 5.03445C52.9148 5.13667 52.9765 5.26444 52.9765 5.41778C52.9765 5.52 52.9677 5.59667 52.9501 5.64778L47.9773 17.5056C47.8892 17.71 47.7745 17.8719 47.6335 17.9911C47.4924 18.0933 47.2896 18.1444 47.0251 18.1444H45.0677Z" fill="#122659"/>
<path d="M60.8235 18.4C58.8661 18.4 57.3056 17.8548 56.1417 16.7644C54.9955 15.657 54.3872 14.1067 54.3166 12.1133L54.2902 11.4744L54.3166 10.8356C54.4048 8.89333 55.022 7.36852 56.1682 6.26111C57.332 5.1537 58.8838 4.6 60.8235 4.6C62.9043 4.6 64.509 5.21333 65.6375 6.44C66.7837 7.66667 67.3568 9.30222 67.3568 11.3467V11.8833C67.3568 12.0537 67.2951 12.1985 67.1717 12.3178C67.0482 12.437 66.8895 12.4967 66.6956 12.4967H57.9139V12.7011C57.9492 13.6381 58.2137 14.4304 58.7074 15.0778C59.2188 15.7081 59.9154 16.0233 60.7971 16.0233C61.8375 16.0233 62.6751 15.6315 63.3099 14.8478C63.4686 14.6604 63.592 14.5411 63.6802 14.49C63.786 14.4389 63.9359 14.4133 64.1299 14.4133H66.4046C66.5633 14.4133 66.6956 14.4644 66.8014 14.5667C66.9248 14.6519 66.9865 14.7626 66.9865 14.8989C66.9865 15.3078 66.7308 15.7933 66.2195 16.3556C65.7257 16.9007 65.0115 17.3778 64.077 17.7867C63.1424 18.1956 62.0579 18.4 60.8235 18.4ZM63.7595 10.35V10.2733C63.7595 9.26815 63.495 8.45889 62.966 7.84556C62.4546 7.23222 61.7405 6.92556 60.8235 6.92556C59.9065 6.92556 59.1924 7.23222 58.681 7.84556C58.1696 8.45889 57.9139 9.26815 57.9139 10.2733V10.35H63.7595Z" fill="#122659"/>
<path d="M70.7994 18.1444C70.623 18.1444 70.4731 18.0848 70.3497 17.9656C70.2263 17.8463 70.1645 17.7015 70.1645 17.5311V5.49444C70.1645 5.32407 70.2263 5.17926 70.3497 5.06C70.4731 4.9237 70.623 4.85556 70.7994 4.85556H72.9419C73.1358 4.85556 73.2945 4.91519 73.418 5.03445C73.5414 5.1537 73.6031 5.30704 73.6031 5.49444V6.54222C74.0264 5.99704 74.5554 5.57963 75.1902 5.29C75.8426 5.00037 76.5833 4.85556 77.412 4.85556H78.4965C78.6905 4.85556 78.8404 4.91519 78.9462 5.03445C79.0696 5.13667 79.1314 5.28148 79.1314 5.46889V7.30889C79.1314 7.47926 79.0696 7.62407 78.9462 7.74333C78.8404 7.86259 78.6905 7.92222 78.4965 7.92222H76.4334C75.6046 7.92222 74.9521 8.15222 74.476 8.61222C73.9999 9.07222 73.7618 9.70259 73.7618 10.5033V17.5311C73.7618 17.7015 73.7001 17.8463 73.5767 17.9656C73.4533 18.0848 73.2946 18.1444 73.1006 18.1444H70.7994Z" fill="#122659"/>
<path d="M82.1465 18.1444C81.9702 18.1444 81.8203 18.0848 81.6969 17.9656C81.5734 17.8463 81.5117 17.7015 81.5117 17.5311V0.894445C81.5117 0.707037 81.5646 0.553704 81.6704 0.434445C81.7939 0.315185 81.9526 0.255555 82.1465 0.255555H89.8172C91.8804 0.255555 93.4146 0.698519 94.4197 1.58445C95.4424 2.45333 95.9538 3.64593 95.9538 5.16222C95.9538 6.04815 95.7246 6.8063 95.2661 7.43667C94.8253 8.05 94.3051 8.49296 93.7055 8.76556C94.4461 9.08926 95.0633 9.61741 95.5571 10.35C96.0684 11.0826 96.3241 11.9174 96.3241 12.8544C96.3241 14.4389 95.7687 15.7167 94.6577 16.6878C93.5644 17.6589 92.0215 18.1444 90.0289 18.1444H82.1465ZM89.3411 7.59C90.2581 7.59 90.9546 7.37704 91.4307 6.95111C91.9069 6.52519 92.1449 5.95444 92.1449 5.23889C92.1449 4.5063 91.9069 3.94407 91.4307 3.55222C90.9546 3.14333 90.2581 2.93889 89.3411 2.93889H85.1884V7.59H89.3411ZM89.6056 15.4356C90.5226 15.4356 91.2368 15.197 91.7482 14.72C92.2595 14.2259 92.5152 13.6041 92.5152 12.8544C92.5152 12.0878 92.2595 11.4659 91.7482 10.9889C91.2368 10.4948 90.5226 10.2478 89.6056 10.2478H85.1884V15.4356H89.6056Z" fill="#122659"/>
<path d="M103.322 18.4C102.422 18.4 101.593 18.2296 100.835 17.8889C100.095 17.5311 99.5039 17.0541 99.063 16.4578C98.6398 15.8615 98.4282 15.2056 98.4282 14.49C98.4282 13.3315 98.9131 12.3944 99.883 11.6789C100.853 10.9633 102.184 10.4778 103.877 10.2222L107.501 9.71111V9.17445C107.501 8.42482 107.307 7.86259 106.919 7.48778C106.531 7.11296 105.905 6.92556 105.041 6.92556C104.459 6.92556 103.983 7.0363 103.613 7.25778C103.26 7.46222 102.978 7.66667 102.766 7.87111C102.555 8.09259 102.413 8.23741 102.343 8.30556C102.272 8.51 102.14 8.61222 101.946 8.61222H99.9095C99.7507 8.61222 99.6097 8.56111 99.4862 8.45889C99.3804 8.35667 99.3275 8.22037 99.3275 8.05C99.3452 7.62407 99.5568 7.13852 99.9623 6.59333C100.386 6.04815 101.029 5.57963 101.893 5.18778C102.757 4.79593 103.815 4.6 105.067 4.6C107.148 4.6 108.665 5.05148 109.617 5.95444C110.569 6.85741 111.045 8.04148 111.045 9.50667V17.5311C111.045 17.7015 110.983 17.8463 110.86 17.9656C110.754 18.0848 110.604 18.1444 110.41 18.1444H108.268C108.092 18.1444 107.942 18.0848 107.818 17.9656C107.695 17.8463 107.633 17.7015 107.633 17.5311V16.5344C107.245 17.0796 106.69 17.5311 105.967 17.8889C105.261 18.2296 104.38 18.4 103.322 18.4ZM104.221 15.9722C105.191 15.9722 105.984 15.6656 106.601 15.0522C107.219 14.4389 107.527 13.5444 107.527 12.3689V11.8322L104.882 12.2411C103.859 12.3944 103.084 12.6415 102.555 12.9822C102.043 13.323 101.787 13.7404 101.787 14.2344C101.787 14.7796 102.026 15.2056 102.502 15.5122C102.978 15.8189 103.551 15.9722 104.221 15.9722Z" fill="#122659"/>
<path d="M122.056 18.4C120.24 18.4 118.829 17.7952 117.824 16.5856V17.5311C117.824 17.7015 117.763 17.8463 117.639 17.9656C117.533 18.0848 117.383 18.1444 117.189 18.1444H115.1C114.923 18.1444 114.774 18.0848 114.65 17.9656C114.527 17.8463 114.465 17.7015 114.465 17.5311V0.613333C114.465 0.425926 114.527 0.281112 114.65 0.17889C114.774 0.0596299 114.923 0 115.1 0H117.348C117.542 0 117.692 0.0596299 117.798 0.17889C117.921 0.281112 117.983 0.425926 117.983 0.613333V6.28667C118.988 5.16222 120.346 4.6 122.056 4.6C123.837 4.6 125.204 5.16222 126.156 6.28667C127.108 7.41111 127.62 8.86778 127.69 10.6567C127.708 10.8611 127.717 11.1337 127.717 11.4744C127.717 11.8322 127.708 12.1133 127.69 12.3178C127.62 14.1578 127.108 15.6315 126.156 16.7389C125.204 17.8463 123.837 18.4 122.056 18.4ZM121.078 15.6656C122.982 15.6656 123.996 14.5326 124.12 12.2667C124.137 12.0963 124.146 11.8407 124.146 11.5C124.146 11.1593 124.137 10.9037 124.12 10.7333C123.996 8.46741 122.982 7.33444 121.078 7.33444C120.09 7.33444 119.332 7.64111 118.803 8.25445C118.292 8.85074 118.018 9.57481 117.983 10.4267L117.957 11.3978L117.983 12.3944C118.036 13.3144 118.309 14.0896 118.803 14.72C119.297 15.3504 120.055 15.6656 121.078 15.6656Z" fill="#122659"/>
<path d="M132.578 23C132.437 23 132.314 22.9489 132.208 22.8467C132.102 22.7444 132.049 22.6252 132.049 22.4889C132.049 22.3356 132.085 22.1993 132.155 22.08L134.218 17.3522L129.14 5.77556C129.069 5.62222 129.034 5.50296 129.034 5.41778C129.052 5.26444 129.113 5.13667 129.219 5.03445C129.325 4.91519 129.457 4.85556 129.616 4.85556H131.758C132.093 4.85556 132.332 5.01741 132.473 5.34111L135.991 13.6978L139.614 5.34111C139.755 5.01741 139.993 4.85556 140.328 4.85556H142.445C142.586 4.85556 142.709 4.90667 142.815 5.00889C142.938 5.11111 143 5.23037 143 5.36667C143 5.48593 142.965 5.62222 142.894 5.77556L135.409 22.5144C135.25 22.8382 135.003 23 134.668 23H132.578Z" fill="#122659"/>
</svg>

<svg width="143" height="23" fill="none" xmlns="http://www.w3.org/2000/svg"><path d="M7.803 18.4c-2.433 0-4.32-.605-5.66-1.814C.82 15.376.115 13.672.026 11.474.01 11.014 0 10.264 0 9.226c0-1.057.009-1.823.026-2.3C.115 4.745.83 3.05 2.17 1.84 3.527.613 5.405 0 7.803 0c1.57 0 2.936.264 4.1.792 1.164.511 2.063 1.218 2.698 2.121.635.886.97 1.891 1.005 3.016v.051a.454.454 0 0 1-.185.358.573.573 0 0 1-.37.128h-2.513c-.212 0-.37-.043-.476-.128-.106-.085-.194-.247-.265-.486-.282-1.073-.75-1.823-1.402-2.249-.652-.443-1.525-.664-2.618-.664-2.54 0-3.862 1.371-3.968 4.114-.018.46-.027 1.167-.027 2.121 0 .955.01 1.679.027 2.173.106 2.743 1.428 4.114 3.968 4.114 1.093 0 1.966-.221 2.618-.664.67-.443 1.138-1.193 1.402-2.25.053-.238.132-.4.238-.485.123-.085.291-.128.503-.128h2.512c.16 0 .291.052.397.154a.41.41 0 0 1 .159.383 5.472 5.472 0 0 1-1.005 3.041c-.635.886-1.534 1.593-2.698 2.121-1.164.511-2.53.767-4.1.767ZM19.087 18.144a.624.624 0 0 1-.45-.178.582.582 0 0 1-.185-.435V.613c0-.187.062-.332.185-.434a.623.623 0 0 1 .45-.179h2.195c.194 0 .344.06.45.179a.532.532 0 0 1 .185.434v16.918c0 .17-.062.315-.185.435-.106.119-.256.178-.45.178h-2.195ZM31.35 18.4c-1.957 0-3.517-.545-4.681-1.636-1.146-1.107-1.755-2.657-1.825-4.65l-.027-.64.027-.638c.088-1.943.705-3.467 1.851-4.575C27.86 5.154 29.411 4.6 31.35 4.6c2.081 0 3.686.613 4.815 1.84 1.146 1.227 1.719 2.862 1.719 4.907v.536c0 .17-.062.316-.185.435a.657.657 0 0 1-.476.179H28.44v.204c.035.937.3 1.73.794 2.377.51.63 1.207.945 2.09.945 1.04 0 1.877-.391 2.512-1.175.159-.188.282-.307.37-.358.106-.051.256-.077.45-.077h2.275c.158 0 .29.051.396.154a.388.388 0 0 1 .186.332c0 .409-.256.894-.768 1.457-.493.545-1.207 1.022-2.142 1.43-.935.41-2.02.614-3.253.614Zm2.937-8.05v-.077c0-1.005-.265-1.814-.794-2.427-.511-.614-1.226-.92-2.143-.92-.916 0-1.63.306-2.142.92-.511.613-.767 1.422-.767 2.427v.077h5.846ZM45.068 18.144c-.265 0-.468-.05-.609-.153a1.291 1.291 0 0 1-.344-.485L39.17 5.648l-.053-.23c0-.154.053-.281.159-.384a.592.592 0 0 1 .423-.178h2.143c.335 0 .564.161.688.485l3.517 8.97 3.518-8.97c.053-.12.133-.23.238-.332a.682.682 0 0 1 .45-.153h2.17c.14 0 .264.06.37.178.123.103.184.23.184.384a.752.752 0 0 1-.026.23l-4.973 11.858a1.29 1.29 0 0 1-.343.485c-.142.102-.344.153-.609.153h-1.957ZM60.824 18.4c-1.958 0-3.518-.545-4.682-1.636-1.147-1.107-1.755-2.657-1.825-4.65l-.027-.64.027-.638c.088-1.943.705-3.467 1.851-4.575C57.332 5.154 58.884 4.6 60.824 4.6c2.08 0 3.685.613 4.814 1.84 1.146 1.227 1.719 2.862 1.719 4.907v.536c0 .17-.062.316-.185.435a.657.657 0 0 1-.476.179h-8.782v.204c.035.937.3 1.73.793 2.377.512.63 1.208.945 2.09.945 1.04 0 1.878-.391 2.513-1.175.159-.188.282-.307.37-.358.106-.051.256-.077.45-.077h2.275c.158 0 .29.051.396.154a.388.388 0 0 1 .186.332c0 .409-.256.894-.767 1.457-.494.545-1.209 1.022-2.143 1.43-.935.41-2.02.614-3.253.614Zm2.936-8.05v-.077c0-1.005-.265-1.814-.794-2.427-.511-.614-1.226-.92-2.142-.92-.917 0-1.632.306-2.143.92-.511.613-.767 1.422-.767 2.427v.077h5.846ZM70.8 18.144a.623.623 0 0 1-.45-.178.582.582 0 0 1-.185-.435V5.494c0-.17.061-.315.185-.434a.584.584 0 0 1 .45-.204h2.142c.194 0 .353.06.476.178.123.12.185.273.185.46v1.048A4.17 4.17 0 0 1 75.19 5.29c.653-.29 1.393-.434 2.222-.434h1.084c.195 0 .344.06.45.178a.533.533 0 0 1 .185.435v1.84c0 .17-.061.315-.185.434-.106.12-.255.18-.45.18h-2.063c-.828 0-1.48.23-1.957.69-.476.46-.714 1.09-.714 1.89v7.028c0 .17-.062.315-.185.435a.657.657 0 0 1-.476.178h-2.302ZM82.147 18.144a.623.623 0 0 1-.45-.178.581.581 0 0 1-.185-.435V.894c0-.187.053-.34.158-.46a.657.657 0 0 1 .477-.178h7.67c2.063 0 3.598.443 4.603 1.328 1.022.87 1.534 2.062 1.534 3.578 0 .886-.23 1.644-.688 2.275-.44.613-.96 1.056-1.56 1.329.74.323 1.357.851 1.851 1.584.511.733.767 1.567.767 2.504 0 1.585-.555 2.863-1.666 3.834-1.094.97-2.636 1.456-4.63 1.456h-7.882ZM89.34 7.59c.917 0 1.614-.213 2.09-.639.476-.426.714-.997.714-1.712 0-.733-.238-1.295-.714-1.687-.476-.409-1.173-.613-2.09-.613h-4.153V7.59h4.153Zm.265 7.846c.917 0 1.63-.239 2.142-.716.511-.494.767-1.116.767-1.866 0-.766-.255-1.388-.767-1.865-.511-.494-1.225-.741-2.142-.741h-4.418v5.188h4.418ZM103.322 18.4c-.9 0-1.729-.17-2.487-.511-.74-.358-1.331-.835-1.772-1.431a3.326 3.326 0 0 1-.635-1.968c0-1.159.485-2.096 1.455-2.811.97-.716 2.301-1.201 3.994-1.457l3.624-.51v-.538c0-.75-.194-1.311-.582-1.686-.388-.375-1.014-.562-1.878-.562-.582 0-1.058.11-1.428.332a4.394 4.394 0 0 0-.847.613c-.211.222-.353.366-.423.435-.071.204-.203.306-.397.306h-2.037a.645.645 0 0 1-.423-.153.542.542 0 0 1-.159-.409c.018-.426.23-.911.635-1.457.424-.545 1.067-1.013 1.931-1.405.864-.392 1.922-.588 3.174-.588 2.081 0 3.598.451 4.55 1.354s1.428 2.087 1.428 3.553v8.024c0 .17-.062.315-.185.435-.106.119-.256.178-.45.178h-2.142a.626.626 0 0 1-.45-.178.583.583 0 0 1-.185-.435v-.997c-.388.546-.943.997-1.666 1.355-.706.34-1.587.511-2.645.511Zm.899-2.428c.97 0 1.763-.306 2.38-.92.618-.613.926-1.508.926-2.683v-.537l-2.645.41c-1.023.152-1.798.4-2.327.74-.512.341-.768.758-.768 1.252 0 .546.239.972.715 1.278.476.307 1.049.46 1.719.46ZM122.056 18.4c-1.816 0-3.227-.605-4.232-1.814v.945a.58.58 0 0 1-.185.435c-.106.119-.256.178-.45.178H115.1a.624.624 0 0 1-.45-.178.583.583 0 0 1-.185-.435V.613c0-.187.062-.332.185-.434A.624.624 0 0 1 115.1 0h2.248c.194 0 .344.06.45.179a.534.534 0 0 1 .185.434v5.674c1.005-1.125 2.363-1.687 4.073-1.687 1.781 0 3.148.562 4.1 1.687.952 1.124 1.464 2.58 1.534 4.37.018.204.027.477.027.817 0 .358-.009.64-.027.844-.07 1.84-.582 3.314-1.534 4.42-.952 1.108-2.319 1.662-4.1 1.662Zm-.978-2.734c1.904 0 2.918-1.133 3.042-3.4.017-.17.026-.425.026-.766 0-.34-.009-.596-.026-.767-.124-2.266-1.138-3.399-3.042-3.399-.988 0-1.746.307-2.275.92-.511.597-.785 1.32-.82 2.173l-.026.97.026.997c.053.92.326 1.696.82 2.326.494.63 1.252.946 2.275.946ZM132.578 23a.516.516 0 0 1-.37-.153.482.482 0 0 1-.159-.358c0-.153.036-.29.106-.409l2.063-4.728-5.078-11.576a.934.934 0 0 1-.106-.358.614.614 0 0 1 .185-.384.509.509 0 0 1 .397-.178h2.142c.335 0 .574.161.715.485l3.518 8.357 3.623-8.357c.141-.324.379-.485.714-.485h2.117c.141 0 .264.05.37.153a.455.455 0 0 1 .185.358c0 .119-.035.255-.106.409l-7.485 16.738c-.159.324-.406.486-.741.486h-2.09Z" fill="#122659"/></svg>
